!!!!SEGMENT: pl-wnifc--13846--023_anonim--23-dajciez-mi-kielicha.krn
!!!kernsource:
!!!cenid: 18xx:3245
!!!COM: Anonim
!!!COM-rismid: pe30004985
!!!CDT:
!!!CNT:
!!!GTL: Pieśni polskie i ruskie ludu galicyjskiego
!!!OTL: 23. Dajcież mi kielicha
!!!PDT: 1833
!!!AGN:
!!!SMS-siglum: PL-Wnifc
!!!SMS-shelfmark: 13846
!!!SMS-shelfwork: 023 G
!!!NIFC-rismid: 1001036781
!!!URL-scan: http://repozytorium.nifc.pl/skany/pl-wnifc-nut--13846
!!!ONB-nifc:
!!!key: D
!!!OMD: Tempo di Mazur.
**kern	**kern	**dynam	**kern	**text
*part2	*part2	*part2	*part1	*part1
*staff3	*staff2	*	*staff1	*staff1
*I"FORTEPIAN.	*I"FORTEPIAN.	*	*I"GŁOS.	*
*Ipiano	*Ipiano	*	*Ivox	*
*ICklav	*ICklav	*	*ICvox	*
*IGacmp	*IGacmp	*	*IGsolo	*
*>[A,B,B]	*>[A,B,B]	*>[A,B,B]	*>[A,B,B]	*>[A,B,B]
*>A	*>A	*>A	*>A	*>A
*clefF4	*clefG2	*	*clefG2	*
*k[f#c#]	*k[f#c#]	*	*k[f#c#]	*
*D:	*D:	*	*D:	*
*M3/8	*M3/8	*	*M3/8	*
=1-	=1-	=1-	=1-	=1-
!	!	!	!LO:TX:a:t=D.a.11	!
4D/ 4DD/	16r	.	16a/	Daj-
.	(16A/LL	.	16a/	-cież
.	16d/	.	16dd\	mi
.	16f#/	.	16r	.
8r	16d/	.	8cc#\	kie-
.	16A/JJ)	.	.	.
=2	=2	=2	=2	=2
4GG/ 4GGG/	16r	.	8b\	-li-
.	(16B/LL	.	.	.
.	16e/	.	(8.ee\L	-cha
.	16g/	.	.	.
8r	16e/	.	.	.
.	16B/JJ)	.	16dd\Jk)	.
!!LO:PB:g=original
=3	=3	=3	=3	=3
4AA/ 4AAA/	16r	.	16cc#\	bo
.	(16A/LL	.	16cc#\	mam
.	16e/	.	8a/	chę-
.	16g/	.	.	.
8r	16e/	.	8cc#\	-ci
.	16A/JJ)	.	.	.
=4	=4	=4	=4	=4
4D/ 4DD/	16r	.	(16ee\LL	wie-
.	(16A/LL	.	16dd\JJ)	.
.	16d/	.	4dd\	-le,
.	16f#/	.	.	.
8r	16a/	.	.	.
.	16f#/JJ)	.	.	.
=5	=5	=5	=5	=5
!	!	!LO:DY:b=2:rj:t=f.	!	!
8D/ 8DD/	16a/LL 16f#/ 16d/	f	16a/	wy-
.	16a/JJ 16f#/ 16d/	.	16a/	-pić
!!LO:LB:g=original
8A\L 8F#\ 8D\	16dd/ 16a/ 16f#/	.	16dd\	wa-
.	16r	.	16r	.
8d\J 8F#\ 8D\	8cc#/ 8a/	.	8cc#\	sze
=6	=6	=6	=6	=6
8GG/ 8GGG/	8b/ 8g/	.	8b\	zdro-
!	!	!LO:DY:rj:t=sf.	!	!
(8B\L 8G\	8.ee\L 8.g\	sf	(8.ee\L	-wie
8e\J 8G\)	.	.	.	.
.	16dd\Jk	.	16dd\Jk)	.
=7	=7	=7	=7	=7
8AA/ 8AAA/	16cc#/LL 16e/	.	16cc#\	za-
.	16cc#\JJ	.	16cc#\	-cni
8A\L 8E\ 8AA\	8a\L	.	8a/	przy-
8A\J	8cc#\J 8g\ 8e\	.	8cc#\	-ja-
!!LO:LB:g=original
=8	=8	=8	=8	=8
8D/ 8DD/	(16ee\LL 16g\	.	(16ee\LL	-cie-
.	16dd\JJ 16f#\)	.	16dd\JJ)	.
(16D\LL	4dd\ 4f#\	.	4dd\	-le
16F#\	.	.	.	.
16A\	.	.	.	.
16d\JJ)	.	.	.	.
=9!|:	=9!|:	=9!|:	=9!|:	=9!|:
*>B	*>B	*>B	*>B	*>B
8AA/ 8AAA/	16gg\LL 16ee\	.	16gg\	niech
.	16ff#\JJ 16dd\	.	16ff#\	wam
(8c#\L 8A\	8ee\L 8cc#\	.	8ee\	da
8e\J 8c#\)	8aa\J 8a\	.	8aa\	Bóg
=10	=10	=10	=10	=10
8D/ 8DD/	(16ff#\LL 16a\	.	(16ff#\LL	szczę-
.	16dd\JJ)	.	16dd\JJ)	.
(>8A\L [<8F#\ [8D\	4dd\	.	4dd\	-ście
8d\J 8F#\] 8D\])	.	.	.	.
!!LO:LB:g=original
=11	=11	=11	=11	=11
8AA/ 8AAA/	16gg\LL 16ee\	.	16gg\LL|	u-
.	16ff#\JJ 16dd\	.	16ff#\JJ|	-kon-
(8c#\L 8A\	8ee\L 8cc#\	.	8ee\	-ten-
8e\J 8c#\)	8aa\J 8a\	.	8aa\	-to-
=12	=12	=12	=12	=12
8D/ 8DD/	(16ff#\LL 16a\	.	(16ff#\LL	-wa-
.	16dd\JJ)	.	16dd\JJ)	.
(>8A\L [<8F#\ [8D\	4dd\	.	4dd\	-nie
8d\J 8F#\] 8D\])	.	.	.	.
=13	=13	=13	=13	=13
8DD/	16a/LL 16f#/	.	16a/	te-
.	16a/JJ 16f#/	.	16a/	-go
!	!	!LO:DY:rj:t=sf.	!	!
(8A\L 8F#\ 8D\	8dd\L 8a\ 8f#\ 8d\	sf	8dd\	ja
8d\J 8F#\)	8cc#\J 8a\	.	8cc#\	wam
!!LO:PB:g=original
=14	=14	=14	=14	=14
8GG/	(>16b\LL [16g\	.	(16b/LL	ży-
.	16ee\JJ 16g\])	.	16ee/JJ)	.
(>8B\L [8G\	8.ee\L 8.g\	.	8.ee\L	-czę
8e\J 8G\])	.	.	.	.
.	16dd\Jk	.	16dd\Jk	.
=15	=15	=15	=15	=15
*	*^	*	*	*
8AA/	16cc#/LL 16g/	8g\	.	16cc#\	na
.	16b/JJ	.	.	16b/	po-
(<8E/L 8AA/	8a/L 8g/	8ryy	.	8a/	-dzię-
8A\J 8E\)	8cc#/J 8g/	8ryy	.	8cc#\	-ko-
*	*v	*v	*	*	*
=16	=16	=16	=16	=16
8D\L	(16ee\LL 16g\	.	(16ee\LL	-wa-
.	16dd\JJ 16f#\	.	16dd\JJ	.
(>8A\ [8D\	4dd\ 4f#\)	.	4dd\)	-nie
8d\J 8D\])	.	.	.	.
==	==	==	==	==
*-	*-	*-	*-	*-
!!!system-decoration: s1{(s2,s3)}
!!!RDF**kern: < = below
!!!RDF**kern: | = vertical stroke
!!!ENC: Marta Lawrence
!!!END: 2021-11-10
